X: 20443
M: C|
L: 1/8
K: D
(DE) |\
a>gfg a2gf | e>fgf f2{gf}e2 |\
a>gfg a2gf |
e>fgf f2e2 |\
ddde fffg | aaag f2e2 |\
f2f>f f2e2 | dfAd {c}B2A2 |\


